images/groupins-03.svg

<svg fill="none" height="48" viewBox="0 0 48 48" width="48" xmlns="http://www.w3.org/2000/svg" xmlns:xlink="http://www.w3.org/1999/xlink"><clipPath id="a"><path d="m0 0h48v48h-48z"/></clipPath><g clip-path="url(#a)"><path d="m36.0002 20h-2.52c-.7482-2.898-2.2944-5.528-4.4627-7.5912s-4.8719-3.47682-7.8034-4.08025c-2.9316-.60343-5.9737-.37247-8.7806.66663-2.80685 1.03912-5.266 2.84472-7.09797 5.21162-1.83198 2.3669-2.96333 5.2002-3.26549 8.1779-.30217 2.9778.23696 5.9806 1.55613 8.6672 1.31917 2.6867 3.36548 4.9495 5.90641 6.5312 2.54092 1.5818 5.47462 2.4191 8.46762 2.4169h18c2.6522 0 5.1957-1.0536 7.0711-2.9289 1.8754-1.8754 2.9289-4.4189 2.9289-7.0711s-1.0535-5.1957-2.9289-7.0711c-1.8754-1.8753-4.4189-2.9289-7.0711-2.9289z" stroke="#ff512f" stroke-linecap="round" stroke-linejoin="round" stroke-width="4"/></g></svg>

<svg width="48" height="48" viewBox="0 0 48 48" fill="none" xmlns="http://www.w3.org/2000/svg">
<g clip-path="url(#clip0_754_2571)">
<path d="M36.0002 20H33.4802C32.732 17.102 31.1858 14.472 29.0175 12.4088C26.8492 10.3456 24.1456 8.93198 21.2141 8.32855C18.2825 7.72512 15.2404 7.95608 12.4335 8.99518C9.62665 10.0343 7.1675 11.8399 5.33553 14.2068C3.50355 16.5737 2.3722 19.407 2.07004 22.3847C1.76787 25.3625 2.307 28.3653 3.62617 31.0519C4.94534 33.7386 6.99165 36.0014 9.53258 37.5831C12.0735 39.1649 15.0072 40.0022 18.0002 40H36.0002C38.6524 40 41.1959 38.9464 43.0713 37.0711C44.9467 35.1957 46.0002 32.6522 46.0002 30C46.0002 27.3478 44.9467 24.8043 43.0713 22.9289C41.1959 21.0536 38.6524 20 36.0002 20Z" stroke="#FF512F" stroke-width="4" stroke-linecap="round" stroke-linejoin="round"/>
</g>
<defs>
<clipPath id="clip0_754_2571">
<rect width="48" height="48" fill="white"/>
</clipPath>
</defs>
</svg>
